X:232
T:Polska från Småland ur Götiska förbundets samlingar
T:(SmM I:232)
R:Polska
B:Småländsk Musiktradition
O:Småland
M:3/4
L:1/8
K:Gm
G/A/B/c/ d2 g2|g/^f/a/f/ d3 =f|ed cB AG| ^FA d3 A|Bd Ac GB|AG ^FA d>A|
Bd Ac GB|B/A/G/^F/ G2 G,2:| |:fg e2 df|ed cA A2|ga b2 ag|g/^f/a/f/ d3 =f|
ed cB AG|^FA d3 A|Bd Ac GB|B/A/G/^F/ G2 G,2:|

